svg/crypto/usd_coin_USDC_line.svg

<?xml version="1.0" encoding="UTF-8"?>
<svg width="24px" height="24px" viewBox="0 0 24 24" version="1.1" xmlns="http://www.w3.org/2000/svg" xmlns:xlink="http://www.w3.org/1999/xlink">
    <title>usd_coin_USDC_line</title>
    <g id="页面-1" stroke="none" stroke-width="1" fill="none" fill-rule="evenodd">
        <g id="Business" transform="translate(-576.000000, -384.000000)" fill-rule="nonzero">
            <g id="usd_coin_USDC_line" transform="translate(576.000000, 384.000000)">
                <path d="M24,0 L24,24 L0,24 L0,0 L24,0 Z M12.5934901,23.257841 L12.5819402,23.2595131 L12.5108777,23.2950439 L12.4918791,23.2987469 L12.4918791,23.2987469 L12.4767152,23.2950439 L12.4056548,23.2595131 C12.3958229,23.2563662 12.3870493,23.2590235 12.3821421,23.2649074 L12.3780323,23.275831 L12.360941,23.7031097 L12.3658947,23.7234994 L12.3769048,23.7357139 L12.4804777,23.8096931 L12.4953491,23.8136134 L12.4953491,23.8136134 L12.5071152,23.8096931 L12.6106902,23.7357139 L12.6232938,23.7196733 L12.6232938,23.7196733 L12.6266527,23.7031097 L12.609561,23.275831 C12.6075724,23.2657013 12.6010112,23.2592993 12.5934901,23.257841 L12.5934901,23.257841 Z M12.8583906,23.1452862 L12.8445485,23.1473072 L12.6598443,23.2396597 L12.6498822,23.2499052 L12.6498822,23.2499052 L12.6471943,23.2611114 L12.6650943,23.6906389 L12.6699349,23.7034178 L12.6699349,23.7034178 L12.678386,23.7104931 L12.8793402,23.8032389 C12.8914285,23.8068999 12.9022333,23.8029875 12.9078286,23.7952264 L12.9118235,23.7811639 L12.8776777,23.1665331 C12.8752882,23.1545897 12.8674102,23.1470016 12.8583906,23.1452862 L12.8583906,23.1452862 Z M12.1430473,23.1473072 C12.1332178,23.1423925 12.1221763,23.1452606 12.1156365,23.1525954 L12.1099173,23.1665331 L12.0757714,23.7811639 C12.0751323,23.7926639 12.0828099,23.8018602 12.0926481,23.8045676 L12.108256,23.8032389 L12.3092106,23.7104931 L12.3186497,23.7024347 L12.3186497,23.7024347 L12.3225043,23.6906389 L12.340401,23.2611114 L12.337245,23.2485176 L12.337245,23.2485176 L12.3277531,23.2396597 L12.1430473,23.1473072 Z" id="MingCute" fill-rule="nonzero"></path>
                <path d="M9.42116,3.31663 C9.6361,3.82537 9.39793,4.41204 8.88919,4.62698 C6.01437,5.84161 4,8.68668 4,11.9999 C4,15.3132 6.01437,18.1582 8.88919,19.3729 C9.39793,19.5878 9.6361,20.1745 9.42115,20.6832 C9.20621,21.1919 8.61955,21.4301 8.11081,21.2152 C4.52174,19.6988 2,16.145 2,11.9999 C2,7.85484 4.52175,4.30107 8.11081,2.78467 C8.61955,2.56972 9.20621,2.80789 9.42116,3.31663 Z M15.8892,2.78467 C19.4783,4.30107 22,7.85484 22,11.9999 C22,16.145 19.4783,19.6988 15.8892,21.2152 C15.3805,21.4301 14.7938,21.1919 14.5788,20.6832 C14.3639,20.1745 14.6021,19.5878 15.1108,19.3729 C17.9856,18.1582 20,15.3132 20,11.9999 C20,8.68668 17.9856,5.84161 15.1108,4.62698 C14.6021,4.41204 14.3639,3.82537 14.5788,3.31663 C14.7938,2.80789 15.3805,2.56972 15.8892,2.78467 Z M12,6.00001 C12.5523,6.00001 13,6.44773 13,7.00001 L13,8.00001 L15,8.00001 C15.5523,8.00001 16,8.44773 16,9.00001 C16,9.5523 15.5523,10.00001 15,10.00001 L13,10.00001 L13,11.00001 L14,11.00001 C15.3807,11.00001 16.5,12.1193 16.5,13.50001 C16.5,14.8807 15.3807,16.00001 14,16.00001 L13,16.00001 L13,17.00001 C13,17.5523 12.5523,18.00001 12,18.00001 C11.4477,18.00001 11,17.5523 11,17.00001 L11,16.00001 L9,16.00001 C8.44772,16.00001 8,15.5523 8,15.00001 C8,14.4477 8.44772,14.00001 9,14.00001 L11,14.00001 L11,13.00001 L10,13.00001 C8.61929,13.00001 7.5,11.8807 7.5,10.50001 C7.5,9.1193 8.61929,8.00001 10,8.00001 L11,8.00001 L11,7.00001 C11,6.44773 11.4477,6.00001 12,6.00001 Z M14,13 L13,13 L13,14 L14,14 C14.2761,14 14.5,13.7762 14.5,13.5 C14.5,13.2239 14.2761,13 14,13 Z M11,10 L10,10 C9.72386,10 9.5,10.2239 9.5,10.5 C9.5,10.7762 9.72386,11 10,11 L11,11 L11,10 Z" id="形状" fill="#09244B"></path>
            </g>
        </g>
    </g>
</svg>

<svg xmlns="http://www.w3.org/2000/svg" width="24" height="24"><g fill="none" fill-rule="nonzero"><path d="M24 0v24H0V0h24ZM12.593 23.258l-.011.002-.071.035-.02.004-.014-.004-.071-.035c-.01-.004-.019-.001-.024.005l-.004.01-.017.428.005.02.01.013.104.074.015.004.012-.004.104-.074.012-.016.004-.017-.017-.427c-.002-.01-.009-.017-.017-.018Zm.265-.113-.013.002-.185.093-.01.01-.003.011.018.43.005.012.008.007.201.093c.012.004.023 0 .029-.008l.004-.014-.034-.614c-.003-.012-.01-.02-.02-.022Zm-.715.002a.023.023 0 0 0-.027.006l-.006.014-.034.614c0 .012.007.02.017.024l.015-.002.201-.093.01-.008.004-.011.017-.43-.003-.012-.01-.01-.184-.092Z"/><path fill="#09244B" d="M9.421 3.317a1 1 0 0 1-.532 1.31 8.003 8.003 0 0 0 0 14.746 1 1 0 1 1-.778 1.842A10.003 10.003 0 0 1 2 12C2 7.855 4.522 4.3 8.11 2.785a1 1 0 0 1 1.311.532Zm6.468-.532A10.002 10.002 0 0 1 22 12c0 4.145-2.522 7.699-6.11 9.215a1 1 0 0 1-.78-1.842 8.003 8.003 0 0 0 0-14.746 1 1 0 0 1 .78-1.842ZM12 6a1 1 0 0 1 1 1v1h2a1 1 0 1 1 0 2h-2v1h1a2.5 2.5 0 0 1 0 5h-1v1a1 1 0 1 1-2 0v-1H9a1 1 0 1 1 0-2h2v-1h-1a2.5 2.5 0 0 1 0-5h1V7a1 1 0 0 1 1-1Zm2 7h-1v1h1a.5.5 0 1 0 0-1Zm-3-3h-1a.5.5 0 0 0 0 1h1v-1Z"/></g></svg>
